!!!COM: Webern, Anton von
!!!CDT: 1883///-1945///
!!!CNT: Austrian
!!!OTL: Piano Variations
!!!OPS: Op. 27
!!!ODT: 1934///-1935///
!!!PDT: 1936///
!!!OMV: No. 2
!!!AIN: piano
**kern	**kern	**dynam
*staff2	*staff1	*staff1
*>[I,A,A,B,B]	*>[I,A,A,B,B]	*>[I,A,A,B,B]
*>norep[I,A,B]	*>norep[I,A,B]	*>norep[I,A,B]
*>I	*>I	*>I
*clefG2	*clefF4	*clefF4
*k[]	*k[]	*k[]
*M2/4	*M2/4	*M2/4
*MM160	*MM160	*MM160
8bb-/	8r	.
8r	8G#\	.
=1!|:	=1!|:	=1!|:
*>A	*>A	*>A
8r	4r	.
8an'^/	.	.
*	*clefG2	*clefG2
4r	8an'^\	.
.	8r	.
*clefF4	*	*
=2	=2	=2
4c#\	8r	.
.	4ffn\	.
8r	.	.
(BBnq/	.	.
8Dn'/)	8r	.
=3	=3	=3
.	(gggnq\	.
4r	8eeen'\)	.
.	8r	.
8r	4r	.
*clefG2	*	*
8f#^/ 8ccn^/ 8ffn^/	.	.
=4	=4	=4
4r	8c#^\ 8f#^\ 8ccn^\	.
.	8r	.
*	*clefF4	*clefF4
8eeen/	8r	.
8r	8Dn\	.
=5	=5	=5
4r	8r	.
.	8G#\	.
8bb-/	8r	.
*	*clefG2	*clefG2
8r	8gggn'\	.
*clefF4	*	*
=6	=6	=6
8BBn'/	4r	.
8r	.	.
(e-q\	.	.
8Dn'/)	8r	.
.	dd#q\	.
8r	8eeen'\	.
*clefG2	*	*
=7	=7	=7
8r	4r	.
4f#/	.	.
.	4ccn\	.
8r	.	.
*clefF4	*	*
=8	=8	=8
(Enq\	.	.
8Gn'/)	8r	.
.	(dddnq\	.
8r	8bbn'\)	.
4r	8r	.
.	8bn^\ 8ffn^\ 8bb-^\	.
*clefG2	*	*
=9	=9	=9
8G#^/ 8c#^/ 8gn^/	4r	.
8r	.	.
8r	8an'v\	.
8an'/	8r	.
=10	=10	=10
4r	8r	.
.	8c#\	.
8ffnv/	8r	.
8r	8ccn'\	.
=11	=11	=11
8f#'/	4r	.
8r	.	.
8bb-/	8r	.
*	*clefF4	*clefF4
8r	8G#\	.
=12:|!|:	=12:|!|:	=12:|!|:
*>B	*>B	*>B
8r	4r	.
*clefF4	*	*
8BBn'/	.	.
*	*clefG2	*clefG2
8r	8gggn'\	.
*clefG2	*	*
8gggn'\	8r	.
*	*clefF4	*clefF4
=13	=13	=13
4r	8BBn'\	.
.	8r	.
8an'/	8r	.
*	*clefG2	*clefG2
8r	8an'\	.
=14	=14	=14
8r	4r	.
4f#/	.	.
.	4ccn\	.
8r	.	.
*clefF4	*	*
=15	=15	=15
8E-^/ 8A-^/ 8dn^/	8r	.
8r	8een^\ 8bb-^\ 8eee-^\	.
*clefG2	*	*
8een/	8r	.
8r	8dn\	.
=16	=16	=16
8r	4r	.
8ccn/	.	.
8r	8f#\	.
8d-'/	8r	.
=17	=17	=17
4r	8ffn'\	.
.	8r	.
*clefF4	*	*
c#q\	.	.
8Dn'/	8r	.
.	ffnq\	.
8r	8eeen'\	.
=18	=18	=18
4r	8r	.
.	(bb-q\	.
.	8ccn'\)	.
(G#q\	.	.
8f#'/)	4r	.
8r	.	.
*clefG2	*	*
=19	=19	=19
8r	8an'\	.
8an'/	8r	.
4r	8r	.
.	8f#^\ 8bn^\ 8ffn^\	.
=20	=20	=20
8c#^/ 8gn^/ 8ccn^/	8r	.
8r	8gn\	.
8bn/	8r	.
8r	8r	.
*clefF4	*	*
=21	=21	=21
e-q\	.	.
8Dn'/	8r	.
.	dd#q\	.
8r	8eee'\	.
4r	4r	.
.	.	.
=22	=22	=22
4r	4r	.
.	.	.
*clefG2	*clefF4	*clefF4
8bb-/	8r	.
8r	8G#\	.
==:|!	==:|!	==:|!
*-	*-	*-
